Catalina-light/apps/scalable/nuvalaplayer.svg

<?xml version="1.0" encoding="UTF-8" standalone="no"?>
<svg
   xmlns:dc="http://purl.org/dc/elements/1.1/"
   xmlns:cc="http://creativecommons.org/ns#"
   xmlns:rdf="http://www.w3.org/1999/02/22-rdf-syntax-ns#"
   xmlns:svg="http://www.w3.org/2000/svg"
   xmlns="http://www.w3.org/2000/svg"
   xmlns:xlink="http://www.w3.org/1999/xlink"
   xmlns:sodipodi="http://sodipodi.sourceforge.net/DTD/sodipodi-0.dtd"
   xmlns:inkscape="http://www.inkscape.org/namespaces/inkscape"
   height="136.53333"
   viewBox="0 0 136.53333 136.53333"
   width="136.53333"
   version="1.1"
   id="svg59"
   sodipodi:docname="novaplayer.svg"
   inkscape:version="0.92.4 5da689c313, 2019-01-14">
  <metadata
     id="metadata65">
    <rdf:RDF>
      <cc:Work
         rdf:about="">
        <dc:format>image/svg+xml</dc:format>
        <dc:type
           rdf:resource="http://purl.org/dc/dcmitype/StillImage" />
        <dc:title></dc:title>
      </cc:Work>
    </rdf:RDF>
  </metadata>
  <defs
     id="defs63">
    <linearGradient
       inkscape:collect="always"
       id="linearGradient892">
      <stop
         style="stop-color:#e87d2b;stop-opacity:1"
         offset="0"
         id="stop888" />
      <stop
         id="stop900"
         offset="0.33617362"
         style="stop-color:#ebcf91;stop-opacity:1" />
      <stop
         id="stop896"
         offset="0.43764529"
         style="stop-color:#ece3b3;stop-opacity:1" />
      <stop
         style="stop-color:#d2e5be;stop-opacity:1"
         offset="0.60637003"
         id="stop898" />
      <stop
         style="stop-color:#7cbbf1;stop-opacity:1"
         offset="1"
         id="stop890" />
    </linearGradient>
    <linearGradient
       inkscape:collect="always"
       xlink:href="#linearGradient892"
       id="linearGradient894"
       x1="10.637559"
       y1="34.526421"
       x2="113.43985"
       y2="114.94223"
       gradientUnits="userSpaceOnUse" />
    <linearGradient
       inkscape:collect="always"
       xlink:href="#linearGradient892"
       id="linearGradient931"
       x1="33.48872"
       y1="24.691391"
       x2="102.44857"
       y2="103.08234"
       gradientUnits="userSpaceOnUse" />
    <linearGradient
       inkscape:collect="always"
       xlink:href="#linearGradient892"
       id="linearGradient939"
       x1="42.100582"
       y1="24.11286"
       x2="102.94857"
       y2="106.69817"
       gradientUnits="userSpaceOnUse"
       gradientTransform="translate(65.51864,-9.8350276)" />
    <linearGradient
       inkscape:collect="always"
       xlink:href="#linearGradient892"
       id="linearGradient958"
       gradientUnits="userSpaceOnUse"
       gradientTransform="translate(65.51864,-9.8350276)"
       x1="42.100582"
       y1="24.11286"
       x2="102.94857"
       y2="106.69817" />
    <linearGradient
       inkscape:collect="always"
       xlink:href="#linearGradient892"
       id="linearGradient960"
       gradientUnits="userSpaceOnUse"
       gradientTransform="translate(65.51864,-9.8350276)"
       x1="42.100582"
       y1="24.11286"
       x2="102.94857"
       y2="106.69817" />
    <linearGradient
       inkscape:collect="always"
       xlink:href="#linearGradient892"
       id="linearGradient962"
       gradientUnits="userSpaceOnUse"
       gradientTransform="translate(65.51864,-9.8350276)"
       x1="42.100582"
       y1="24.11286"
       x2="102.94857"
       y2="106.69817" />
    <linearGradient
       inkscape:collect="always"
       xlink:href="#linearGradient892"
       id="linearGradient964"
       gradientUnits="userSpaceOnUse"
       gradientTransform="translate(65.51864,-9.8350276)"
       x1="42.100582"
       y1="24.11286"
       x2="102.94857"
       y2="106.69817" />
  </defs>
  <sodipodi:namedview
     pagecolor="#ffffff"
     bordercolor="#666666"
     borderopacity="1"
     objecttolerance="10"
     gridtolerance="10"
     guidetolerance="10"
     inkscape:pageopacity="0"
     inkscape:pageshadow="2"
     inkscape:window-width="1920"
     inkscape:window-height="1031"
     id="namedview61"
     showgrid="false"
     inkscape:zoom="4.8889808"
     inkscape:cx="65.072032"
     inkscape:cy="69.895772"
     inkscape:window-x="0"
     inkscape:window-y="26"
     inkscape:window-maximized="1"
     inkscape:current-layer="svg59" />
  <linearGradient
     id="a">
    <stop
       offset="0"
       stop-color="#9760ef"
       id="stop2" />
    <stop
       offset="1"
       stop-color="#c054f2"
       stop-opacity="0"
       id="stop4" />
  </linearGradient>
  <linearGradient
     id="b">
    <stop
       offset="0"
       stop-color="#17c7e7"
       id="stop7" />
    <stop
       offset="1"
       stop-color="#c054f2"
       stop-opacity="0"
       id="stop9" />
  </linearGradient>
  <linearGradient
     id="c"
     gradientUnits="userSpaceOnUse"
     x1="62.04421"
     x2="66.81698"
     y1="5.831234"
     y2="47.148641">
    <stop
       offset="0"
       stop-color="#e83c2b"
       id="stop12" />
    <stop
       offset="1"
       stop-color="#c054f2"
       stop-opacity=".792157"
       id="stop14" />
  </linearGradient>
  <linearGradient
     id="d"
     gradientUnits="userSpaceOnUse"
     x1="88.22553"
     x2="38.18116"
     xlink:href="#b"
     y1="119.556361"
     y2="35.285226"
     gradientTransform="translate(-227.27608,-22.607353)" />
  <linearGradient
     id="e"
     gradientUnits="userSpaceOnUse"
     x1="61.6262"
     x2="95.3216"
     y1="48.640058"
     y2="103.021981">
    <stop
       offset="0"
       stop-color="#f66456"
       id="stop18" />
    <stop
       offset="1"
       stop-color="#d9493e"
       stop-opacity="0"
       id="stop20" />
  </linearGradient>
  <linearGradient
     id="f"
     gradientUnits="userSpaceOnUse"
     x1="32.31499"
     x2="61.76681"
     xlink:href="#a"
     y1="92.483823"
     y2="57.318029" />
  <linearGradient
     id="g"
     gradientUnits="userSpaceOnUse"
     x1="96.53194"
     x2="61.76681"
     xlink:href="#b"
     y1="97.690601"
     y2="59.053621" />
  <linearGradient
     id="h"
     gradientUnits="userSpaceOnUse"
     x1="139.34325"
     x2="61.76681"
     xlink:href="#a"
     y1="-7.023515"
     y2="59.053621" />
  <filter
     id="i"
     color-interpolation-filters="sRGB"
     height="1.108812"
     width="1.139866"
     x="-.069933"
     y="-.054406">
    <feGaussianBlur
       stdDeviation="1.9764485"
       id="feGaussianBlur26" />
  </filter>
  <path
     style="color:#000000;font-style:normal;font-variant:normal;font-weight:normal;font-stretch:normal;font-size:medium;line-height:normal;font-family:sans-serif;font-variant-ligatures:normal;font-variant-position:normal;font-variant-caps:normal;font-variant-numeric:normal;font-variant-alternates:normal;font-feature-settings:normal;text-indent:0;text-align:start;text-decoration:none;text-decoration-line:none;text-decoration-style:solid;text-decoration-color:#000000;letter-spacing:normal;word-spacing:normal;text-transform:none;writing-mode:lr-tb;direction:ltr;text-orientation:mixed;dominant-baseline:auto;baseline-shift:baseline;text-anchor:start;white-space:normal;shape-padding:0;clip-rule:nonzero;display:inline;overflow:visible;visibility:visible;opacity:1;isolation:auto;mix-blend-mode:normal;color-interpolation:sRGB;color-interpolation-filters:linearRGB;solid-color:#000000;solid-opacity:1;vector-effect:none;fill:url(#linearGradient894);fill-opacity:1;fill-rule:nonzero;stroke:none;stroke-width:6;stroke-linecap:butt;stroke-linejoin:miter;stroke-miterlimit:4;stroke-dasharray:none;stroke-dashoffset:0;stroke-opacity:1;color-rendering:auto;image-rendering:auto;shape-rendering:auto;text-rendering:auto;enable-background:accumulate"
     d="m 68.113281,2.2167969 c -36.979431,0 -67.0214841,30.0420531 -67.0214841,67.0214841 0,36.979429 30.0420531,67.021489 67.0214841,67.021489 36.979429,0 67.021489,-30.04206 67.021489,-67.021489 0,-36.979431 -30.04206,-67.0214841 -67.021489,-67.0214841 z"
     id="circle29"
     inkscape:connector-curvature="0"
     sodipodi:nodetypes="sssss" />
  <path
     style="opacity:1;fill:#ffffff;fill-opacity:1;stroke:none;stroke-width:3.79999995;stroke-linecap:round;stroke-linejoin:round;stroke-miterlimit:4;stroke-dasharray:none;stroke-dashoffset:0;stroke-opacity:0.05323193;paint-order:fill markers stroke"
     d="M 68.113281,8.78125 C 34.723662,8.7809529 7.6559529,35.848662 7.65625,69.238281 7.655954,102.6279 34.723662,129.69561 68.113281,129.69531 101.5029,129.69561 128.57061,102.6279 128.57031,69.238281 128.57061,35.848662 101.5029,8.780954 68.113281,8.78125 Z"
     id="path839"
     inkscape:connector-curvature="0"
     sodipodi:nodetypes="ccccc" />
  <g
     id="g956"
     transform="translate(-65.518636,9.835028)"
     style="opacity:0.424">
    <path
       inkscape:connector-curvature="0"
       id="path887"
       d="m 140.12675,33.132163 c -9.02731,0 -16.79125,5.262467 -20.21517,12.801924 -1.83212,-1.438128 -4.13292,-2.293487 -6.63183,-2.293487 -5.88347,0 -10.67265,4.748118 -10.82303,10.660658 -6.073035,2.303192 -10.391733,8.226272 -10.391733,15.171524 0,8.204307 6.02821,14.985638 13.852263,16.054417 v 0.147147 h 55.42426 v -0.03045 c 7.72744,-0.453259 13.85734,-6.929522 13.85734,-14.856931 0,-7.645166 -5.70342,-13.945554 -13.04041,-14.790966 0.0305,-0.466041 0.0507,-0.936854 0.0507,-1.410597 0,-11.848412 -9.88664,-21.453244 -22.08243,-21.453244 z M 126.2339,52.215808 144.02365,64.596584 126.2339,76.977359 Z"
       style="opacity:0.13405798;fill:none;fill-opacity:1;stroke:url(#linearGradient958);stroke-width:1;stroke-miterlimit:4;stroke-dasharray:none;stroke-opacity:1" />
    <path
       style="opacity:0.13405798;fill:none;fill-opacity:1;stroke:url(#linearGradient960);stroke-width:2;stroke-miterlimit:4;stroke-dasharray:none;stroke-opacity:1"
       d="m 140.12675,33.132163 c -9.02731,0 -16.79125,5.262467 -20.21517,12.801924 -1.83212,-1.438128 -4.13292,-2.293487 -6.63183,-2.293487 -5.88347,0 -10.67265,4.748118 -10.82303,10.660658 -6.073035,2.303192 -10.391733,8.226272 -10.391733,15.171524 0,8.204307 6.02821,14.985638 13.852263,16.054417 v 0.147147 h 55.42426 v -0.03045 c 7.72744,-0.453259 13.85734,-6.929522 13.85734,-14.856931 0,-7.645166 -5.70342,-13.945554 -13.04041,-14.790966 0.0305,-0.466041 0.0507,-0.936854 0.0507,-1.410597 0,-11.848412 -9.88664,-21.453244 -22.08243,-21.453244 z M 126.2339,52.215808 144.02365,64.596584 126.2339,76.977359 Z"
       id="path943"
       inkscape:connector-curvature="0" />
    <path
       inkscape:connector-curvature="0"
       id="path945"
       d="m 140.12675,33.132163 c -9.02731,0 -16.79125,5.262467 -20.21517,12.801924 -1.83212,-1.438128 -4.13292,-2.293487 -6.63183,-2.293487 -5.88347,0 -10.67265,4.748118 -10.82303,10.660658 -6.073035,2.303192 -10.391733,8.226272 -10.391733,15.171524 0,8.204307 6.02821,14.985638 13.852263,16.054417 v 0.147147 h 55.42426 v -0.03045 c 7.72744,-0.453259 13.85734,-6.929522 13.85734,-14.856931 0,-7.645166 -5.70342,-13.945554 -13.04041,-14.790966 0.0305,-0.466041 0.0507,-0.936854 0.0507,-1.410597 0,-11.848412 -9.88664,-21.453244 -22.08243,-21.453244 z M 126.2339,52.215808 144.02365,64.596584 126.2339,76.977359 Z"
       style="opacity:0.13405798;fill:none;fill-opacity:1;stroke:url(#linearGradient962);stroke-width:3;stroke-miterlimit:4;stroke-dasharray:none;stroke-opacity:1" />
    <path
       style="opacity:0.13405798;fill:none;fill-opacity:1;stroke:url(#linearGradient964);stroke-width:4;stroke-miterlimit:4;stroke-dasharray:none;stroke-opacity:1"
       d="m 140.12675,33.132163 c -9.02731,0 -16.79125,5.262467 -20.21517,12.801924 -1.83212,-1.438128 -4.13292,-2.293487 -6.63183,-2.293487 -5.88347,0 -10.67265,4.748118 -10.82303,10.660658 -6.073035,2.303192 -10.391733,8.226272 -10.391733,15.171524 0,8.204307 6.02821,14.985638 13.852263,16.054417 v 0.147147 h 55.42426 v -0.03045 c 7.72744,-0.453259 13.85734,-6.929522 13.85734,-14.856931 0,-7.645166 -5.70342,-13.945554 -13.04041,-14.790966 0.0305,-0.466041 0.0507,-0.936854 0.0507,-1.410597 0,-11.848412 -9.88664,-21.453244 -22.08243,-21.453244 z M 126.2339,52.215808 144.02365,64.596584 126.2339,76.977359 Z"
       id="path947"
       inkscape:connector-curvature="0" />
    <path
       inkscape:connector-curvature="0"
       id="path949"
       d="m 140.12675,33.132163 c -9.02731,0 -16.79125,5.262467 -20.21517,12.801924 -1.83212,-1.438128 -4.13292,-2.293487 -6.63183,-2.293487 -5.88347,0 -10.67265,4.748118 -10.82303,10.660658 -6.073035,2.303192 -10.391733,8.226272 -10.391733,15.171524 0,8.204307 6.02821,14.985638 13.852263,16.054417 v 0.147147 h 55.42426 v -0.03045 c 7.72744,-0.453259 13.85734,-6.929522 13.85734,-14.856931 0,-7.645166 -5.70342,-13.945554 -13.04041,-14.790966 0.0305,-0.466041 0.0507,-0.936854 0.0507,-1.410597 0,-11.848412 -9.88664,-21.453244 -22.08243,-21.453244 z M 126.2339,52.215808 144.02365,64.596584 126.2339,76.977359 Z"
       style="opacity:0.13405798;fill:none;fill-opacity:1;stroke:url(#linearGradient939);stroke-width:5;stroke-miterlimit:4;stroke-dasharray:none;stroke-opacity:1" />
  </g>
  <g
     transform="matrix(1.5699703,0,0,1.5699703,-547.47761,-761.7815)"
     id="g885"
     style="fill:#000000;fill-opacity:1;stroke-width:1.29999995">
    <circle
       cx="400.57144"
       cy="531.79797"
       r="0"
       id="circle881"
       style="fill:#000000;fill-opacity:1;stroke:url(#c-4);stroke-width:1" />
    <circle
       cx="400.57138"
       cy="531.79791"
       r="0"
       id="circle883"
       style="fill:#000000;fill-opacity:1" />
  </g>
  <path
     inkscape:connector-curvature="0"
     id="path922"
     d="m 74.608114,42.967191 c -9.02731,0 -16.791253,5.262467 -20.21517,12.801924 -1.832125,-1.438128 -4.132923,-2.293487 -6.631833,-2.293487 -5.883472,0 -10.67265,4.748118 -10.823031,10.660658 -6.073035,2.303192 -10.391733,8.226272 -10.391733,15.171524 0,8.204307 6.02821,14.985638 13.85226,16.054417 v 0.147147 h 55.424267 v -0.03045 c 7.727436,-0.453259 13.857336,-6.929522 13.857336,-14.856931 0,-7.645166 -5.70342,-13.945554 -13.040406,-14.790966 0.0305,-0.466041 0.0507,-0.936854 0.0507,-1.410597 0,-11.848412 -9.88664,-21.453244 -22.08243,-21.453244 z M 60.715258,62.050836 78.505014,74.431612 60.715258,86.812387 Z"
     style="fill:url(#linearGradient931);fill-opacity:1;stroke:none;stroke-width:4.36548424;stroke-opacity:1" />
</svg>

<svg width="136.53" height="136.53" version="1.1" viewBox="0 0 136.53 136.53" xmlns="http://www.w3.org/2000/svg">
<defs>
<linearGradient id="linearGradient894" x1="10.638" x2="113.44" y1="34.526" y2="114.94" gradientUnits="userSpaceOnUse"/>
<linearGradient id="linearGradient931" x1="33.489" x2="102.45" y1="24.691" y2="103.08" gradientUnits="userSpaceOnUse"/>
<linearGradient id="linearGradient939" x1="42.101" x2="102.95" y1="24.113" y2="106.7" gradientTransform="translate(65.519 -9.835)" gradientUnits="userSpaceOnUse"/>
</defs>
<filter x="-.069933" y="-.054406" width="1.1399" height="1.1088" color-interpolation-filters="sRGB">
<feGaussianBlur stdDeviation="1.9764485"/>
</filter>
<path d="m68.113 2.2168c-36.979 0-67.021 30.042-67.021 67.021 0 36.979 30.042 67.021 67.021 67.021 36.979 0 67.021-30.042 67.021-67.021 0-36.979-30.042-67.021-67.021-67.021z" color="#000000" color-rendering="auto" dominant-baseline="auto" fill="url(#linearGradient894)" image-rendering="auto" shape-rendering="auto" solid-color="#000000" style="font-feature-settings:normal;font-variant-alternates:normal;font-variant-caps:normal;font-variant-ligatures:normal;font-variant-numeric:normal;font-variant-position:normal;isolation:auto;mix-blend-mode:normal;shape-padding:0;text-decoration-color:#000000;text-decoration-line:none;text-decoration-style:solid;text-indent:0;text-orientation:mixed;text-transform:none;white-space:normal"/>
<path d="m68.113 8.7812c-33.39-2.971e-4 -60.457 27.067-60.457 60.457-2.96e-4 33.39 27.067 60.457 60.457 60.457 33.39 3e-4 60.457-27.067 60.457-60.457 3e-4 -33.39-27.067-60.457-60.457-60.457z" fill="#fff" style="paint-order:fill markers stroke"/>
<g transform="translate(-65.519 9.835)" fill="none" opacity=".424" stroke="url(#linearGradient939)">
<path d="m140.13 33.132c-9.0273 0-16.791 5.2625-20.215 12.802-1.8321-1.4381-4.1329-2.2935-6.6318-2.2935-5.8835 0-10.673 4.7481-10.823 10.661-6.073 2.3032-10.392 8.2263-10.392 15.172 0 8.2043 6.0282 14.986 13.852 16.054v0.14715h55.424v-0.03045c7.7274-0.45326 13.857-6.9295 13.857-14.857 0-7.6452-5.7034-13.946-13.04-14.791 0.0305-0.46604 0.0507-0.93685 0.0507-1.4106 0-11.848-9.8866-21.453-22.082-21.453zm-13.893 19.084 17.79 12.381-17.79 12.381z" opacity=".13406"/>
<path d="m140.13 33.132c-9.0273 0-16.791 5.2625-20.215 12.802-1.8321-1.4381-4.1329-2.2935-6.6318-2.2935-5.8835 0-10.673 4.7481-10.823 10.661-6.073 2.3032-10.392 8.2263-10.392 15.172 0 8.2043 6.0282 14.986 13.852 16.054v0.14715h55.424v-0.03045c7.7274-0.45326 13.857-6.9295 13.857-14.857 0-7.6452-5.7034-13.946-13.04-14.791 0.0305-0.46604 0.0507-0.93685 0.0507-1.4106 0-11.848-9.8866-21.453-22.082-21.453zm-13.893 19.084 17.79 12.381-17.79 12.381z" opacity=".13406" stroke-width="2"/>
<path d="m140.13 33.132c-9.0273 0-16.791 5.2625-20.215 12.802-1.8321-1.4381-4.1329-2.2935-6.6318-2.2935-5.8835 0-10.673 4.7481-10.823 10.661-6.073 2.3032-10.392 8.2263-10.392 15.172 0 8.2043 6.0282 14.986 13.852 16.054v0.14715h55.424v-0.03045c7.7274-0.45326 13.857-6.9295 13.857-14.857 0-7.6452-5.7034-13.946-13.04-14.791 0.0305-0.46604 0.0507-0.93685 0.0507-1.4106 0-11.848-9.8866-21.453-22.082-21.453zm-13.893 19.084 17.79 12.381-17.79 12.381z" opacity=".13406" stroke-width="3"/>
<path d="m140.13 33.132c-9.0273 0-16.791 5.2625-20.215 12.802-1.8321-1.4381-4.1329-2.2935-6.6318-2.2935-5.8835 0-10.673 4.7481-10.823 10.661-6.073 2.3032-10.392 8.2263-10.392 15.172 0 8.2043 6.0282 14.986 13.852 16.054v0.14715h55.424v-0.03045c7.7274-0.45326 13.857-6.9295 13.857-14.857 0-7.6452-5.7034-13.946-13.04-14.791 0.0305-0.46604 0.0507-0.93685 0.0507-1.4106 0-11.848-9.8866-21.453-22.082-21.453zm-13.893 19.084 17.79 12.381-17.79 12.381z" opacity=".13406" stroke-width="4"/>
<path d="m140.13 33.132c-9.0273 0-16.791 5.2625-20.215 12.802-1.8321-1.4381-4.1329-2.2935-6.6318-2.2935-5.8835 0-10.673 4.7481-10.823 10.661-6.073 2.3032-10.392 8.2263-10.392 15.172 0 8.2043 6.0282 14.986 13.852 16.054v0.14715h55.424v-0.03045c7.7274-0.45326 13.857-6.9295 13.857-14.857 0-7.6452-5.7034-13.946-13.04-14.791 0.0305-0.46604 0.0507-0.93685 0.0507-1.4106 0-11.848-9.8866-21.453-22.082-21.453zm-13.893 19.084 17.79 12.381-17.79 12.381z" opacity=".13406" stroke-width="5"/>
</g>
<g transform="matrix(1.57 0 0 1.57 -547.48 -761.78)" stroke-width="1.3">
<circle cx="400.57" cy="531.8" r="0" stroke="url(#c-4)" stroke-width="1"/>
<circle cx="400.57" cy="531.8" r="0"/>
</g>
<path d="m74.608 42.967c-9.0273 0-16.791 5.2625-20.215 12.802-1.8321-1.4381-4.1329-2.2935-6.6318-2.2935-5.8835 0-10.673 4.7481-10.823 10.661-6.073 2.3032-10.392 8.2263-10.392 15.172 0 8.2043 6.0282 14.986 13.852 16.054v0.14715h55.424v-0.03045c7.7274-0.45326 13.857-6.9295 13.857-14.857 0-7.6452-5.7034-13.946-13.04-14.791 0.0305-0.46604 0.0507-0.93685 0.0507-1.4106 0-11.848-9.8866-21.453-22.082-21.453zm-13.893 19.084 17.79 12.381-17.79 12.381z" fill="url(#linearGradient931)"/>
</svg>
